src/assets/img/question.svg

<svg version="1.2" xmlns="http://www.w3.org/2000/svg" xmlns:xlink="http://www.w3.org/1999/xlink" overflow="visible" preserveAspectRatio="none" viewBox="0 0 498.1579895019531 498.1579895019531" height="50" width="50" xml:space="preserve" y="0px" x="0px" id="Layer_1_1556295363665"><g transform="translate(1, 1)"><g><path class="active-path_1556295363665" d="M496.158,248.085c0-137.022-111.069-248.082-248.075-248.082C111.07,0.003,0,111.063,0,248.085  c0,137.001,111.07,248.07,248.083,248.07C385.089,496.155,496.158,385.086,496.158,248.085z" style="fill:#1975D1" vector-effect="non-scaling-stroke"/><path d="M138.216,173.592c0-13.915,4.467-28.015,13.403-42.297c8.933-14.282,21.973-26.11,39.111-35.486  c17.139-9.373,37.134-14.062,59.985-14.062c21.238,0,39.99,3.921,56.25,11.755c16.26,7.838,28.818,18.495,37.683,31.97  c8.861,13.479,13.293,28.125,13.293,43.945c0,12.452-2.527,23.367-7.581,32.739c-5.054,9.376-11.062,17.469-18.018,24.279  c-6.959,6.812-19.446,18.275-37.463,34.388c-4.981,4.542-8.975,8.535-11.975,11.976c-3.004,3.443-5.239,6.592-6.702,9.447  c-1.466,2.857-2.603,5.713-3.406,8.57c-0.807,2.855-2.015,7.875-3.625,15.051c-2.784,15.236-11.501,22.852-26.147,22.852  c-7.618,0-14.028-2.489-19.226-7.471c-5.201-4.979-7.8-12.377-7.8-22.192c0-12.305,1.902-22.962,5.713-31.97  c3.808-9.01,8.861-16.92,15.161-23.73c6.296-6.812,14.794-14.904,25.488-24.28c9.373-8.202,16.15-14.392,20.325-18.567  c4.175-4.175,7.69-8.823,10.547-13.953c2.856-5.126,4.285-10.691,4.285-16.699c0-11.718-4.36-21.605-13.074-29.663  c-8.717-8.054-19.961-12.085-33.728-12.085c-16.116,0-27.981,4.065-35.596,12.195c-7.618,8.13-14.062,20.105-19.336,35.925  c-4.981,16.555-14.43,24.829-28.345,24.829c-8.206,0-15.127-2.891-20.764-8.679C141.035,186.593,138.216,180.331,138.216,173.592z   M245.442,414.412c-8.937,0-16.737-2.895-23.401-8.68c-6.667-5.784-9.998-13.877-9.998-24.279c0-9.229,3.22-16.991,9.668-23.291  c6.444-6.297,14.354-9.448,23.73-9.448c9.229,0,16.991,3.151,23.291,9.448c6.296,6.3,9.448,14.062,9.448,23.291  c0,10.255-3.296,18.312-9.888,24.17C261.7,411.481,254.084,414.412,245.442,414.412z" style="fill:#FFFFFF;" vector-effect="non-scaling-stroke"/></g></g></svg>

<?xml version="1.0" encoding="UTF-8"?>
<svg width="497px" height="497px" viewBox="0 0 497 497" version="1.1" xmlns="http://www.w3.org/2000/svg" xmlns:xlink="http://www.w3.org/1999/xlink">
    <!-- Generator: Sketch 39.1 (31720) - http://www.bohemiancoding.com/sketch -->
    <title>Slice 4</title>
    <desc>Created with Sketch.</desc>
    <defs></defs>
    <g id="Page-1" stroke="none" stroke-width="1" fill="none" fill-rule="evenodd">
        <g id="question">
            <g id="Layer_1_1556295363665">
                <g id="Group">
                    <g id="Shape">
                        <path d="M496.158,248.085 C496.158,111.063 385.089,0.003 248.083,0.003 C111.07,0.003 0,111.063 0,248.085 C0,385.086 111.07,496.155 248.083,496.155 C385.089,496.155 496.158,385.086 496.158,248.085 L496.158,248.085 Z" fill="#003C71"></path>
                        <path d="M138.216,173.592 C138.216,159.677 142.683,145.577 151.619,131.295 C160.552,117.013 173.592,105.185 190.73,95.809 C207.869,86.436 227.864,81.747 250.715,81.747 C271.953,81.747 290.705,85.668 306.965,93.502 C323.225,101.34 335.783,111.997 344.648,125.472 C353.509,138.951 357.941,153.597 357.941,169.417 C357.941,181.869 355.414,192.784 350.36,202.156 C345.306,211.532 339.298,219.625 332.342,226.435 C325.383,233.247 312.896,244.71 294.879,260.823 C289.898,265.365 285.904,269.358 282.904,272.799 C279.9,276.242 277.665,279.391 276.202,282.246 C274.736,285.103 273.599,287.959 272.796,290.816 C271.989,293.671 270.781,298.691 269.171,305.867 C266.387,321.103 257.67,328.719 243.024,328.719 C235.406,328.719 228.996,326.23 223.798,321.248 C218.597,316.269 215.998,308.871 215.998,299.056 C215.998,286.751 217.9,276.094 221.711,267.086 C225.519,258.076 230.572,250.166 236.872,243.356 C243.168,236.544 251.666,228.452 262.36,219.076 C271.733,210.874 278.51,204.684 282.685,200.509 C286.86,196.334 290.375,191.686 293.232,186.556 C296.088,181.43 297.517,175.865 297.517,169.857 C297.517,158.139 293.157,148.252 284.443,140.194 C275.726,132.14 264.482,128.109 250.715,128.109 C234.599,128.109 222.734,132.174 215.119,140.304 C207.501,148.434 201.057,160.409 195.783,176.229 C190.802,192.784 181.353,201.058 167.438,201.058 C159.232,201.058 152.311,198.167 146.674,192.379 C141.035,186.593 138.216,180.331 138.216,173.592 L138.216,173.592 Z M245.442,414.412 C236.505,414.412 228.705,411.517 222.041,405.732 C215.374,399.948 212.043,391.855 212.043,381.453 C212.043,372.224 215.263,364.462 221.711,358.162 C228.155,351.865 236.065,348.714 245.441,348.714 C254.67,348.714 262.432,351.865 268.732,358.162 C275.028,364.462 278.18,372.224 278.18,381.453 C278.18,391.708 274.884,399.765 268.292,405.623 C261.7,411.481 254.084,414.412 245.442,414.412 L245.442,414.412 Z" fill="#FFFFFF"></path>
                    </g>
                </g>
            </g>
        </g>
    </g>
</svg>
